projects/flag-game/flags/Iraq.svg

<svg viewBox="0 0 1000 667" xmlns="http://www.w3.org/2000/svg" xmlns:xlink="http://www.w3.org/1999/xlink"><clipPath id="a"><path d="m0 444h1000v222.71875h-1000zm0 0"/></clipPath><path d="m0 0h1000v222.222656h-1000zm0 0" fill="#ce1126" fill-rule="evenodd"/><path d="m0 222.222656h1000v222.222656h-1000zm0 0" fill="#fff" fill-rule="evenodd"/><g clip-path="url(#a)"><path d="m0 444.445312h1000v222.222657h-1000zm0 0" fill-rule="evenodd"/></g><g fill="#007a3d" fill-rule="evenodd"><path d="m304.054688 415.886719-5.746094-6.304688 11.597656-12.5 5.746094 6.304688 5.746094 6.308593-11.601563 12.5-5.738281-6.320312zm-39.453126-3.179688c-2.070312-.820312-5.421874-3.527343-7.621093-6.136719-4.144531-4.929687-5.085938-7.234374-2.304688-5.613281 4.152344 2.417969 12.371094 3.984375 15.300781 2.925781 10.789063-3.914062 13.242188-19.585937 4.628907-29.523437-1.695313-1.945313-3.078125-4.214844-3.078125-5.035156 0-.824219 1.796875-2.359375 3.992187-3.410157 3.078125-1.480468 4.582031-3.09375 6.550781-7.027343 1.996094-3.992188 2.8125-4.863281 3.777344-3.992188 1.371094 1.234375 6 13.253907 6 15.574219 0 1.226562 1.675782 1.492188 9.25 1.492188h9.242188l-1.441406-3.765626c-.792969-2.070312-2.101563-4.859374-2.902344-6.195312-1.304688-2.164062-1.308594-2.542969-.0625-3.515625.773437-.59375 3.332031-2.554687 5.691406-4.351563 2.359375-1.800781 4.5625-4.054687 4.894531-5.023437.820313-2.390625 5.9375-9.289063 6.886719-9.289063.414062 0 .761719 7.234376.761719 16.070313v16.070313h115.441406v-46.039063l-3.207031-2.160156-3.210938-2.164063-3.253906 2.703125-3.253906 2.695313v32.90625h-48.480469c-26.671875 0-48.492187-.179688-48.492187-.402344 0-.351562 24.128906-35.785156 27.078124-39.773438.609376-.832031 2.128907-3.085937 3.367188-5.019531 1.238281-1.9375 2.5-3.742187 2.800781-4.019531.308594-.277344 1.554688-2.082031 2.789063-4.015625 1.226562-1.9375 2.664062-4.046875 3.183594-4.691406.527343-.644531 9.265624-13.382813 19.425781-28.308594 10.160156-14.925781 18.773437-27.167969 19.148437-27.203125.375-.03125.898438 1.1875 1.175782 2.699219 1.527343 8.410156 2.691406 13.121093 3.902343 15.707031 1.539063 3.3125.640625 4.546875-3.441406 4.683594-1.929687.066406-6.386719 6.003906-27.246094 36.375-13.714843 19.964844-25.074219 36.660156-25.242187 37.101562-.175782.4375 12.1875.796875 27.472656.796875h27.785156l.015625-10.796875c.003907-5.933594.320313-11.261718.6875-11.832031 1.742188-2.675781 20.113281-16.628906 21.390625-16.261719.800782.230469 5.714844 3.945313 10.925782 8.257813l9.464843 7.839843v66.988282h-160.421875l-1.613281 6.476562c-1.9375 7.765625-5.097656 13.367188-9.34375 16.53125-4.039063 2.945313-13.117187 3.78125-18.4375 1.660156zm199.945313-76.839843c0-36.464844.300781-52.390626.996094-52.863282.554687-.375 2.941406 1.535156 5.3125 4.234375 2.371093 2.703125 6.589843 7.042969 9.390625 9.640625 4.410156 4.109375 4.871094 4.867188 3.511718 5.769532-4.546874 3-4.433593 2.054687-4.433593 36.71875v32.566406h8.839843c7.847657 0 9.296876-.292969 12.925782-2.609375 4.507812-2.867188 4.808594-2.488281 2.578125 3.238281-.835938 2.140625-1.769531 6.375-2.082031 9.414062l-.566407 5.523438-18.238281.277344-18.234375.269531v-52.210937zm0 0"/><path d="m560.046875 374.496094c.484375-14.6875 1.878906-19.667969 6.832031-24.398438 3.8125-3.640625 9.265625-5.367187 15.582032-4.921875l4.730468.332031.28125-6.007812c.359375-7.609375-.269531-10.328125-2.597656-11.136719-2.792969-.960937-2.226562-4.117187 1.160156-6.410156 1.65625-1.132813 5.714844-5.019531 9.011719-8.65625 3.300781-3.640625 6.324219-6.613281 6.722656-6.613281.394531 0 .722657 14.519531.722657 32.265625v32.261719h12.976562v-33.195313c0-28.84375-.191406-33.410156-1.460938-34.789063-.796874-.867187-1.84375-1.582031-2.316406-1.582031-2.078125 0-.609375-4.039062 2.15625-5.914062 1.652344-1.125 5.6875-4.992188 8.964844-8.601563 3.273438-3.609375 6.300781-6.328125 6.722656-6.046875.417969.28125.765625 20.675781.765625 45.324219v44.804688h12.976563v-91.757813l-2.316406-2.191406c-1.273438-1.203125-2.316407-2.738281-2.316407-3.410157 0-.667968 2.878907-3.75 6.410157-6.847656 3.519531-3.097656 7.300781-7.003906 8.402343-8.683594 4.730469-7.230468 4.652344-8.308593 4.652344 62.984376v66.039062h-98.488281l.589844-12.863281zm27.589844-9.835938v-6.554687h-3.636719c-4.882812 0-9.339844 4.605469-9.339844 9.65625v3.449219h12.976563zm80.679687-29.667968c0-36.597657.304688-52.59375 1.003906-53.0625.554688-.375 2.957032 1.539062 5.332032 4.253906 2.375 2.710937 6.613281 7.066406 9.417968 9.675781 4.433594 4.125 4.894532 4.882813 3.527344 5.789063-4.5625 3.015624-4.449218 2.074218-4.449218 36.867187v32.695313h9.054687c8.214844 0 9.382813-.242188 12.585937-2.613282 1.945313-1.433594 3.761719-2.359375 4.042969-2.054687.277344.304687-.226562 2.496093-1.117187 4.875-.894532 2.382812-1.886719 6.820312-2.203125 9.871093l-.578125 5.546876-36.621094.542968v-52.402344zm-72.992187-54.859376c-1.632813-.652343-3.515625-1.804687-4.171875-2.5625-1.011719-1.152343-.503906-1.265624 3.15625-.699218 6.589844 1.019531 10.632812-.195313 14.308594-4.3125l3.226562-3.617188 4.492188 1.734375c2.472656.949219 5.050781 1.496094 5.742187 1.210938 1.78125-.75 5.011719-6.308594 4.6875-8.082031-.394531-2.160157 1.429687-1.832032 2.558594.460937 2.207031 4.488281.363281 10.191406-3.863281 11.925781-2.070313.855469-4.074219.875-7.425782.101563-4.117187-.96875-4.792968-.863281-6.597656.976562-4.039062 4.121094-10.195312 5.222657-16.109375 2.875zm11.234375-16.644531c-2.230469-1.660156-6.941406-10.152343-7.121094-12.855469-.160156-2.316406.222656-3.027343 1.734375-3.265624 2.652344-.410157 3.875 1.507812 5.914063 9.265624 1.671874 6.359376 1.496093 8.367188-.519532 6.855469zm0 0"/></g></svg>

<?xml version="1.0" encoding="UTF-8"?>
<svg xmlns="http://www.w3.org/2000/svg" xmlns:xlink="http://www.w3.org/1999/xlink" viewBox="0 0 1000 667" version="1.1">
<defs>
<clipPath id="clip1">
  <path d="M 0 444 L 1000 444 L 1000 666.71875 L 0 666.71875 Z M 0 444 "/>
</clipPath>
</defs>
<g id="surface590">
<path style=" stroke:none;fill-rule:evenodd;fill:rgb(80.783081%,6.666565%,14.901733%);fill-opacity:1;" d="M 0 0 L 1000 0 L 1000 222.222656 L 0 222.222656 Z M 0 0 "/>
<path style=" stroke:none;fill-rule:evenodd;fill:rgb(99.998474%,99.998474%,99.998474%);fill-opacity:1;" d="M 0 222.222656 L 1000 222.222656 L 1000 444.445312 L 0 444.445312 Z M 0 222.222656 "/>
<g clip-path="url(#clip1)" clip-rule="nonzero">
<path style=" stroke:none;fill-rule:evenodd;fill:rgb(0%,0%,0%);fill-opacity:1;" d="M 0 444.445312 L 1000 444.445312 L 1000 666.667969 L 0 666.667969 Z M 0 444.445312 "/>
</g>
<path style=" stroke:none;fill-rule:evenodd;fill:rgb(0%,47.842407%,23.921204%);fill-opacity:1;" d="M 304.054688 415.886719 L 298.308594 409.582031 L 309.90625 397.082031 L 315.652344 403.386719 L 321.398438 409.695312 L 309.796875 422.195312 L 304.058594 415.875 Z M 264.601562 412.707031 C 262.53125 411.886719 259.179688 409.179688 256.980469 406.570312 C 252.835938 401.640625 251.894531 399.335938 254.675781 400.957031 C 258.828125 403.375 267.046875 404.941406 269.976562 403.882812 C 280.765625 399.96875 283.21875 384.296875 274.605469 374.359375 C 272.910156 372.414062 271.527344 370.144531 271.527344 369.324219 C 271.527344 368.5 273.324219 366.964844 275.519531 365.914062 C 278.597656 364.433594 280.101562 362.820312 282.070312 358.886719 C 284.066406 354.894531 284.882812 354.023438 285.847656 354.894531 C 287.21875 356.128906 291.847656 368.148438 291.847656 370.46875 C 291.847656 371.695312 293.523438 371.960938 301.097656 371.960938 L 310.339844 371.960938 L 308.898438 368.195312 C 308.105469 366.125 306.796875 363.335938 305.996094 362 C 304.691406 359.835938 304.6875 359.457031 305.933594 358.484375 C 306.707031 357.890625 309.265625 355.929688 311.625 354.132812 C 313.984375 352.332031 316.1875 350.078125 316.519531 349.109375 C 317.339844 346.71875 322.457031 339.820312 323.40625 339.820312 C 323.820312 339.820312 324.167969 347.054688 324.167969 355.890625 L 324.167969 371.960938 L 439.609375 371.960938 L 439.609375 325.921875 L 436.402344 323.761719 L 433.191406 321.597656 L 429.9375 324.300781 L 426.683594 326.996094 L 426.683594 359.902344 L 378.203125 359.902344 C 351.53125 359.902344 329.710938 359.722656 329.710938 359.5 C 329.710938 359.148438 353.839844 323.714844 356.789062 319.726562 C 357.398438 318.894531 358.917969 316.640625 360.15625 314.707031 C 361.394531 312.769531 362.65625 310.964844 362.957031 310.6875 C 363.265625 310.410156 364.511719 308.605469 365.746094 306.671875 C 366.972656 304.734375 368.410156 302.625 368.929688 301.980469 C 369.457031 301.335938 378.195312 288.597656 388.355469 273.671875 C 398.515625 258.746094 407.128906 246.503906 407.503906 246.46875 C 407.878906 246.4375 408.402344 247.65625 408.679688 249.167969 C 410.207031 257.578125 411.371094 262.289062 412.582031 264.875 C 414.121094 268.1875 413.222656 269.421875 409.140625 269.558594 C 407.210938 269.625 402.753906 275.5625 381.894531 305.933594 C 368.179688 325.898438 356.820312 342.59375 356.652344 343.035156 C 356.476562 343.472656 368.839844 343.832031 384.125 343.832031 L 411.910156 343.832031 L 411.925781 333.035156 C 411.929688 327.101562 412.246094 321.773438 412.613281 321.203125 C 414.355469 318.527344 432.726562 304.574219 434.003906 304.941406 C 434.804688 305.171875 439.71875 308.886719 444.929688 313.199219 L 454.394531 321.039062 L 454.394531 388.027344 L 293.972656 388.027344 L 292.359375 394.503906 C 290.421875 402.269531 287.261719 407.871094 283.015625 411.035156 C 278.976562 413.980469 269.898438 414.816406 264.578125 412.695312 Z M 464.546875 335.867188 C 464.546875 299.402344 464.847656 283.476562 465.542969 283.003906 C 466.097656 282.628906 468.484375 284.539062 470.855469 287.238281 C 473.226562 289.941406 477.445312 294.28125 480.246094 296.878906 C 484.65625 300.988281 485.117188 301.746094 483.757812 302.648438 C 479.210938 305.648438 479.324219 304.703125 479.324219 339.367188 L 479.324219 371.933594 L 488.164062 371.933594 C 496.011719 371.933594 497.460938 371.640625 501.089844 369.324219 C 505.597656 366.457031 505.898438 366.835938 503.667969 372.5625 C 502.832031 374.703125 501.898438 378.9375 501.585938 381.976562 L 501.019531 387.5 L 482.78125 387.777344 L 464.546875 388.046875 L 464.546875 335.835938 Z M 464.546875 335.867188 "/>
<path style=" stroke:none;fill-rule:evenodd;fill:rgb(0%,47.842407%,23.921204%);fill-opacity:1;" d="M 560.046875 374.496094 C 560.53125 359.808594 561.925781 354.828125 566.878906 350.097656 C 570.691406 346.457031 576.144531 344.730469 582.460938 345.175781 L 587.191406 345.507812 L 587.472656 339.5 C 587.832031 331.890625 587.203125 329.171875 584.875 328.363281 C 582.082031 327.402344 582.648438 324.246094 586.035156 321.953125 C 587.691406 320.820312 591.75 316.933594 595.046875 313.296875 C 598.347656 309.65625 601.371094 306.683594 601.769531 306.683594 C 602.164062 306.683594 602.492188 321.203125 602.492188 338.949219 L 602.492188 371.210938 L 615.46875 371.210938 L 615.46875 338.015625 C 615.46875 309.171875 615.277344 304.605469 614.007812 303.226562 C 613.210938 302.359375 612.164062 301.644531 611.691406 301.644531 C 609.613281 301.644531 611.082031 297.605469 613.847656 295.730469 C 615.5 294.605469 619.535156 290.738281 622.8125 287.128906 C 626.085938 283.519531 629.113281 280.800781 629.535156 281.082031 C 629.953125 281.363281 630.300781 301.757812 630.300781 326.40625 L 630.300781 371.210938 L 643.277344 371.210938 L 643.277344 279.453125 L 640.960938 277.261719 C 639.6875 276.058594 638.644531 274.523438 638.644531 273.851562 C 638.644531 273.183594 641.523438 270.101562 645.054688 267.003906 C 648.574219 263.90625 652.355469 260 653.457031 258.320312 C 658.1875 251.089844 658.109375 250.011719 658.109375 321.304688 L 658.109375 387.34375 L 559.621094 387.34375 L 560.210938 374.480469 Z M 587.636719 364.660156 L 587.636719 358.105469 L 584 358.105469 C 579.117188 358.105469 574.660156 362.710938 574.660156 367.761719 L 574.660156 371.210938 L 587.636719 371.210938 Z M 668.316406 334.992188 C 668.316406 298.394531 668.621094 282.398438 669.320312 281.929688 C 669.875 281.554688 672.277344 283.46875 674.652344 286.183594 C 677.027344 288.894531 681.265625 293.25 684.070312 295.859375 C 688.503906 299.984375 688.964844 300.742188 687.597656 301.648438 C 683.035156 304.664062 683.148438 303.722656 683.148438 338.515625 L 683.148438 371.210938 L 692.203125 371.210938 C 700.417969 371.210938 701.585938 370.96875 704.789062 368.597656 C 706.734375 367.164062 708.550781 366.238281 708.832031 366.542969 C 709.109375 366.847656 708.605469 369.039062 707.714844 371.417969 C 706.820312 373.800781 705.828125 378.238281 705.511719 381.289062 L 704.933594 386.835938 L 668.3125 387.378906 L 668.3125 334.976562 Z M 595.324219 280.132812 C 593.691406 279.480469 591.808594 278.328125 591.152344 277.570312 C 590.140625 276.417969 590.648438 276.304688 594.308594 276.871094 C 600.898438 277.890625 604.941406 276.675781 608.617188 272.558594 L 611.84375 268.941406 L 616.335938 270.675781 C 618.808594 271.625 621.386719 272.171875 622.078125 271.886719 C 623.859375 271.136719 627.089844 265.578125 626.765625 263.804688 C 626.371094 261.644531 628.195312 261.972656 629.324219 264.265625 C 631.53125 268.753906 629.6875 274.457031 625.460938 276.191406 C 623.390625 277.046875 621.386719 277.066406 618.035156 276.292969 C 613.917969 275.324219 613.242188 275.429688 611.4375 277.269531 C 607.398438 281.390625 601.242188 282.492188 595.328125 280.144531 Z M 606.558594 263.488281 C 604.328125 261.828125 599.617188 253.335938 599.4375 250.632812 C 599.277344 248.316406 599.660156 247.605469 601.171875 247.367188 C 603.824219 246.957031 605.046875 248.875 607.085938 256.632812 C 608.757812 262.992188 608.582031 265 606.566406 263.488281 Z M 606.558594 263.488281 "/>
</g>
</svg>
